assets/img/about/ig.svg

<svg fill="none" height="27" viewBox="0 0 27 27" width="27" xmlns="http://www.w3.org/2000/svg" xmlns:xlink="http://www.w3.org/1999/xlink"><clipPath id="a"><path d="m0 0h27v27h-27z"/></clipPath><g clip-path="url(#a)"><path d="m13.5 2.43338c3.6045 0 4.032.0135 5.4563.07875 3.6585.1665 5.3673 1.90237 5.5338 5.53387.0653 1.42312.0776 1.85063.0776 5.4551 0 3.6057-.0135 4.032-.0776 5.4552-.1676 3.6281-1.872 5.3673-5.5338 5.5338-1.4243.0653-1.8495.0788-5.4563.0788-3.6045 0-4.032-.0135-5.45512-.0788-3.6675-.1676-5.36738-1.9113-5.53388-5.535-.06525-1.4231-.07875-1.8495-.07875-5.4551 0-3.6045.01463-4.03087.07875-5.45512.16763-3.63038 1.872-5.36738 5.53388-5.53388 1.42425-.06412 1.85062-.07762 5.45512-.07762zm0-2.43338c-3.66638 0-4.12538.01575-5.56538.081-4.90274.225-7.627495 2.94525-7.852495 7.8525-.066375 1.44113-.082125 1.90012-.082125 5.5665 0 3.6664.01575 4.1265.081 5.5665.225 4.9027 2.94525 7.6275 7.8525 7.8525 1.44113.0652 1.90012.081 5.5665.081 3.6664 0 4.1265-.0158 5.5665-.081 4.8983-.225 7.6298-2.9453 7.8514-7.8525.0664-1.44.0821-1.9001.0821-5.5665 0-3.66638-.0158-4.12538-.081-5.56538-.2205-4.89825-2.9441-7.627495-7.8514-7.852495-1.4411-.066375-1.9012-.082125-5.5676-.082125zm0 6.56775c-3.82838 0-6.93225 3.10387-6.93225 6.93225 0 3.8284 3.10387 6.9334 6.93225 6.9334 3.8284 0 6.9323-3.1039 6.9323-6.9334 0-3.82838-3.1039-6.93225-6.9323-6.93225zm0 11.43225c-2.4851 0-4.5-2.0137-4.5-4.5 0-2.4851 2.0149-4.5 4.5-4.5s4.5 2.0149 4.5 4.5c0 2.4863-2.0149 4.5-4.5 4.5zm7.2068-13.32562c-.8955 0-1.6212.72562-1.6212 1.61999 0 .89438.7257 1.62 1.6212 1.62.8943 0 1.6188-.72562 1.6188-1.62 0-.89437-.7245-1.61999-1.6188-1.61999z" fill="#c6c6c6"/></g></svg>

<svg width="27" height="27" viewBox="0 0 27 27" fill="none" xmlns="http://www.w3.org/2000/svg">
<g clip-path="url(#clip0)">
<path d="M13.5 2.43338C17.1045 2.43338 17.532 2.44688 18.9563 2.51213C22.6148 2.67863 24.3236 4.4145 24.4901 8.046C24.5554 9.46912 24.5677 9.89663 24.5677 13.5011C24.5677 17.1068 24.5542 17.5331 24.4901 18.9563C24.3225 22.5844 22.6181 24.3236 18.9563 24.4901C17.532 24.5554 17.1068 24.5689 13.5 24.5689C9.8955 24.5689 9.468 24.5554 8.04488 24.4901C4.37738 24.3225 2.6775 22.5788 2.511 18.9551C2.44575 17.532 2.43225 17.1056 2.43225 13.5C2.43225 9.8955 2.44688 9.46913 2.511 8.04488C2.67863 4.4145 4.383 2.6775 8.04488 2.511C9.46913 2.44688 9.8955 2.43338 13.5 2.43338V2.43338ZM13.5 0C9.83362 0 9.37462 0.01575 7.93462 0.081C3.03188 0.306 0.307125 3.02625 0.082125 7.9335C0.01575 9.37463 0 9.83362 0 13.5C0 17.1664 0.01575 17.6265 0.081 19.0665C0.306 23.9692 3.02625 26.694 7.9335 26.919C9.37463 26.9842 9.83362 27 13.5 27C17.1664 27 17.6265 26.9842 19.0665 26.919C23.9648 26.694 26.6963 23.9737 26.9179 19.0665C26.9843 17.6265 27 17.1664 27 13.5C27 9.83362 26.9842 9.37462 26.919 7.93462C26.6985 3.03637 23.9749 0.307125 19.0676 0.082125C17.6265 0.01575 17.1664 0 13.5 0V0ZM13.5 6.56775C9.67162 6.56775 6.56775 9.67162 6.56775 13.5C6.56775 17.3284 9.67162 20.4334 13.5 20.4334C17.3284 20.4334 20.4323 17.3295 20.4323 13.5C20.4323 9.67162 17.3284 6.56775 13.5 6.56775ZM13.5 18C11.0149 18 9 15.9863 9 13.5C9 11.0149 11.0149 9 13.5 9C15.9851 9 18 11.0149 18 13.5C18 15.9863 15.9851 18 13.5 18ZM20.7068 4.67438C19.8113 4.67438 19.0856 5.4 19.0856 6.29437C19.0856 7.18875 19.8113 7.91437 20.7068 7.91437C21.6011 7.91437 22.3256 7.18875 22.3256 6.29437C22.3256 5.4 21.6011 4.67438 20.7068 4.67438Z" fill="#C6C6C6"/>
</g>
<defs>
<clipPath id="clip0">
<rect width="27" height="27" fill="white"/>
</clipPath>
</defs>
</svg>
